toolkits/global/packages/global-context/img/icons/broad.svg

<svg height="24" viewBox="0 0 24 24" width="24" xmlns="http://www.w3.org/2000/svg"><path d="m9.18274226 7.81v7.7999954l2.48162734-2.4816273c.3928221-.3928221 1.0219731-.4005617 1.4030652-.0194696.3911301.3911301.3914806 1.0249268-.0001404 1.4165479l-4.17620796 4.1762079c-.39120769.3912077-1.02508144.3916069-1.41671995-.0000316l-4.1763942-4.1763942c-.39122514-.3912251-.39767006-1.0190815-.01657798-1.4001736.39113012-.3911301 1.02337106-.3930364 1.41951349.0031061l2.48183446 2.4818344v-8.7999954c0-.54911294.4426881-.99439484.99778758-.99557515l8.00221246-.00442485c.5522847 0 1 .44771525 1 1s-.4477153 1-1 1z" fill="#666" fill-rule="evenodd" transform="matrix(-1 0 0 -1 20.182742 24.805206)"/></svg>

<?xml version="1.0" encoding="UTF-8"?>
<svg width="24px" height="24px" viewBox="0 0 24 24" version="1.1" xmlns="http://www.w3.org/2000/svg" xmlns:xlink="http://www.w3.org/1999/xlink">
    <!-- Generator: Sketch 63.1 (92452) - https://sketch.com -->
    <title>icon-icon / arrow-broad</title>
    <desc>Created with Sketch.</desc>
    <g id="icon-/-arrow-broad" stroke="none" stroke-width="1" fill="none" fill-rule="evenodd">
        <path d="M9.18274226,7.81 L9.18274226,15.6099954 L11.6643696,13.1283681 C12.0571917,12.735546 12.6863427,12.7278064 13.0674348,13.1088985 C13.4585649,13.5000286 13.4589154,14.1338253 13.0672944,14.5254464 L8.89108644,18.7016543 C8.49987875,19.092862 7.866005,19.0932612 7.47436649,18.7016227 L3.29797229,14.5252285 C2.90674715,14.1340034 2.90030223,13.506147 3.28139431,13.1250549 C3.67252443,12.7339248 4.30476537,12.7320185 4.7009078,13.128161 L7.18274226,15.6099954 L7.18274226,6.81 C7.18274226,6.26088706 7.62543036,5.81560516 8.18052984,5.81442485 L16.1827423,5.81 C16.735027,5.81 17.1827423,6.25771525 17.1827423,6.81 C17.1827423,7.36228475 16.735027,7.81 16.1827423,7.81 L9.18274226,7.81 Z" id="arrow-broad" fill="#666666" transform="translate(10.091371, 12.402603) scale(-1, -1) translate(-10.091371, -12.402603) "></path>
    </g>
</svg>
